www/assets/icons/airplay.svg

<svg xmlns="http://www.w3.org/2000/svg" width="24" height="24" viewBox="0 0 24 24" fill='currentColor'><path d="M6 21.5h12l-6-6z"/><path d="M21 2.5H3c-1.1 0-2 .9-2 2v12c0 1.1.9 2 2 2h4v-2H3v-12h18v12h-4v2h4c1.1 0 2-.9 2-2v-12c0-1.1-.9-2-2-2"/></svg>

<svg width="24" height="24" viewBox="0 0 24 24" xmlns="http://www.w3.org/2000/svg" fill='currentColor'><path d="M6 21.5H18L12 15.5L6 21.5Z"/><path d="M21 2.5H3C1.9 2.5 1 3.4 1 4.5V16.5C1 17.6 1.9 18.5 3 18.5H7V16.5H3V4.5H21V16.5H17V18.5H21C22.1 18.5 23 17.6 23 16.5V4.5C23 3.4 22.1 2.5 21 2.5Z"/></svg>
